packages/axiom-materials/src/icon_svgs/link.svg

<svg height="16" viewBox="0 0 16 16" width="16" xmlns="http://www.w3.org/2000/svg"><path d="m3.74473893 1.95946483c1.15217674-1.14938888 3.04552986-1.31579295 4.25617527-.22816227 1.29146975 1.16053967 1.33102209 3.14623763.11779718 4.35652697l-.02837451.02830585c-.25193118.2513216-.66035204.2513216-.91228322 0l-.06802142-.07976759c-.18139045-.25147943-.15871665-.6041188.06802142-.83030824l.0283745-.02744809c.73773705-.73595199.66379138-1.98055144-.22269685-2.61443084-.69646504-.49835443-1.6715161-.34824767-2.27769864.25646812l-2.97158419 2.96439402c-.73773705.73595198-.66379138 1.98055144.22269684 2.61443083.69646505.49749668 1.67151611.34738993 2.27769865-.25646811l.01461717-.0145818c.25193118-.2513216.66035204-.2513216.91228322 0l.06802142.07974357c.18139045.25134047.15871665.60328506-.06802142.8294745l-.08340384.08320203c-1.21322491 1.21028932-3.20459903 1.17083272-4.36709377-.11751215-1.09112858-1.20771608-.92346106-3.09648796.47978703-4.49634069zm5.17692056-1.08030861c1.21322491-1.21028934 3.20459901-1.17083271 4.36709381.11751215 1.0911285 1.20771608.923461 3.09648796-.4797871 4.49634069l-2.5537051 2.54752611c-1.15217677 1.14938888-3.04552989 1.31579295-4.2561753.22816227-1.29146975-1.16053967-1.33102209-3.14623763-.11779718-4.35652697l.02837451-.02830585c.25193118-.2513216.66035204-.2513216.91228322 0s.25193118.65875423 0 .91007583l-.0283745.02744809c-.73773705.73595199-.66379138 1.98055144.22269685 2.61443084.69646504.49835443 1.6715161.34824767 2.27769864-.25646812l2.97158416-2.96439402c.7377371-.73595198.6637914-1.98055144-.2226968-2.61443083-.6964651-.49749668-1.6715161-.34738993-2.27769866.25646811l-.01461717.0145818c-.25193118.2513216-.66035204.2513216-.91228322 0-.25193119-.2513216-.25193119-.65789647 0-.90921807z" fill-rule="evenodd" transform="translate(1 3)"/></svg>

<?xml version="1.0" encoding="UTF-8"?>
<svg width="16px" height="16px" viewBox="0 0 16 16" version="1.1" xmlns="http://www.w3.org/2000/svg" xmlns:xlink="http://www.w3.org/1999/xlink">
    <title>Icon/Link</title>
    <desc>Created with Sketch.</desc>
    <g id="Icon/Link" stroke="none" stroke-width="1" fill="none" fill-rule="evenodd">
        <g id="Link-Icon" transform="translate(1.000000, 3.000000)" fill="#000000">
            <path d="M3.74473893,1.95946483 C4.89691567,0.810075946 6.79026879,0.643671884 8.0009142,1.73130256 C9.29238395,2.89184223 9.33193629,4.87754019 8.11871138,6.08782953 L8.11871138,6.08782953 L8.09033687,6.11613538 C7.83840569,6.36745698 7.42998483,6.36745698 7.17805365,6.11613538 L7.17805365,6.11613538 L7.11003223,6.03636779 C6.92864178,5.78488836 6.95131558,5.43224899 7.17805365,5.20605955 L7.17805365,5.20605955 L7.20642815,5.17861146 C7.9441652,4.44265947 7.87021953,3.19806002 6.9837313,2.56418062 C6.28726626,2.06582619 5.3122152,2.21593295 4.70603266,2.82064874 L4.70603266,2.82064874 L1.73444847,5.78504276 C0.99671142,6.52099474 1.07065709,7.7655942 1.95714531,8.39947359 C2.65361036,8.89697027 3.62866142,8.74686352 4.23484396,8.14300548 L4.23484396,8.14300548 L4.24946113,8.12842368 C4.50139231,7.87710208 4.90981317,7.87710208 5.16174435,8.12842368 L5.16174435,8.12842368 L5.22976577,8.20816725 C5.41115622,8.45950772 5.38848242,8.81145231 5.16174435,9.03764175 L5.16174435,9.03764175 L5.07834051,9.12084378 C3.8651156,10.3311331 1.87374148,10.2916765 0.711246735,9.00333163 C-0.379881835,7.79561555 -0.212214324,5.90684367 1.19103377,4.50699094 L1.19103377,4.50699094 Z M8.92165949,0.879156221 C10.1348844,-0.331133119 12.1262585,-0.291676486 13.2887533,0.996668368 C14.3798818,2.20438445 14.2122143,4.09315633 12.8089662,5.49300906 L12.8089662,5.49300906 L10.2552611,8.04053517 C9.10308433,9.18992405 7.20973121,9.35632812 5.9990858,8.26869744 C4.70761605,7.10815777 4.66806371,5.12245981 5.88128862,3.91217047 L5.88128862,3.91217047 L5.90966313,3.88386462 C6.16159431,3.63254302 6.57001517,3.63254302 6.82194635,3.88386462 C7.07387753,4.13518622 7.07387753,4.54261885 6.82194635,4.79394045 L6.82194635,4.79394045 L6.79357185,4.82138854 C6.0558348,5.55734053 6.12978047,6.80193998 7.0162687,7.43581938 C7.71273374,7.93417381 8.6877848,7.78406705 9.29396734,7.17935126 L9.29396734,7.17935126 L12.2655515,4.21495724 C13.0032886,3.47900526 12.9293429,2.2344058 12.0428547,1.60052641 C11.3463896,1.10302973 10.3713386,1.25313648 9.76515604,1.85699452 L9.76515604,1.85699452 L9.75053887,1.87157632 C9.49860769,2.12289792 9.09018683,2.12289792 8.83825565,1.87157632 C8.58632446,1.62025472 8.58632446,1.21367985 8.83825565,0.962358252 L8.83825565,0.962358252 Z" id="link"></path>
        </g>
    </g>
</svg>
